X:84
T:News of the Victory (The)
T:Tars of the Victory
R:jig 32
M:6/8
L:1/8
Q:1/8=140
K:G
|: d | d^cd d^cd | g2 G G2 B | ABc DEF | GBd d2 d |
d^cd d^cd | g2 G G2 B | ABc DEF | G2 B G2 :|
|: g | fed d2 c | Bcd G2 B | ABc DEF | GBd d2 g |
fed d2 c | Bcd G2 B | ABc DEF | GBd G2 :|

